Suru++-Ubuntu/status/24/dropboxstatus-x.svg

<svg width="24" height="24" version="1.1" xmlns="http://www.w3.org/2000/svg">
 <defs>
  <style type="text/css">.ColorScheme-Text { color:#5c616c; } .ColorScheme-Highlight { color:#5294e2; } .ColorScheme-ButtonBackground { color:#d3dae3; }</style>
 </defs>
 <path class="ColorScheme-ButtonBackground" d="m6.7978306 2.8259371-5.7864891 3.4718935 4.6291913 3.4538394-4.6405328 3.480689 5.7978306 3.481152 4.6291914-3.471894-5.7864892-3.471893 5.7864892-3.4718934 5.786489 3.4899474-5.786489 3.453839 2.056865 1.543836c1.05806-1.678776 2.902503-2.69824 4.886922-2.701133 1.243516 0.0035 2.453008 0.40635 3.449326 1.150516l0.03391-0.02037-4.640766-3.437173 4.629192-3.4718937-5.786489-3.4718934-4.629192 3.4538396-4.6291909-3.4538396zm11.572978 10.41568c-2.556587 0-4.629192 2.072605-4.629192 4.629192 0 2.556586 2.072605 4.629191 4.629192 4.629191 2.556586 0 4.629191-2.072605 4.629191-4.629191 0-2.556587-2.072605-4.629192-4.629191-4.629192zm-6.943787 1.157298-4.6291914 3.471894-1.1572978-0.693928v0.693928l5.7864892 3.471893 1.708866-1.023942c-0.361077-0.763817-0.549717-1.608644-0.552031-2.453472-2.8e-4 -0.776604 0.155772-1.545339 0.458845-2.260318l-1.615588-1.215163zm5.038296 0.74817 1.905491 1.905491 1.905491-1.905491 0.818255 0.818256-1.90549 1.905491 1.90549 1.905491-0.818255 0.818256-1.901441-1.921115-1.905491 1.905491-0.818244-0.818256 1.905491-1.905491-1.905491-1.90549 0.818244-0.818256z" style="fill:#ffffff"/>
</svg>

<?xml version="1.0" encoding="UTF-8" standalone="no"?>
<svg
   xmlns:dc="http://purl.org/dc/elements/1.1/"
   xmlns:cc="http://creativecommons.org/ns#"
   xmlns:rdf="http://www.w3.org/1999/02/22-rdf-syntax-ns#"
   xmlns:svg="http://www.w3.org/2000/svg"
   xmlns="http://www.w3.org/2000/svg"
   xmlns:sodipodi="http://sodipodi.sourceforge.net/DTD/sodipodi-0.dtd"
   xmlns:inkscape="http://www.inkscape.org/namespaces/inkscape"
   height="24"
   width="24"
   version="1.1"
   id="svg2"
   sodipodi:docname="dropboxstatus-x.svg"
   inkscape:version="0.92.3 (unknown)">
  <metadata
     id="metadata8">
    <rdf:RDF>
      <cc:Work
         rdf:about="">
        <dc:format>image/svg+xml</dc:format>
        <dc:type
           rdf:resource="http://purl.org/dc/dcmitype/StillImage" />
      </cc:Work>
    </rdf:RDF>
  </metadata>
  <sodipodi:namedview
     pagecolor="#ffffff"
     bordercolor="#666666"
     borderopacity="1"
     objecttolerance="10"
     gridtolerance="10"
     guidetolerance="10"
     inkscape:pageopacity="0"
     inkscape:pageshadow="2"
     inkscape:window-width="1084"
     inkscape:window-height="722"
     id="namedview6"
     showgrid="false"
     inkscape:zoom="21.166667"
     inkscape:cx="12"
     inkscape:cy="11.731307"
     inkscape:window-x="0"
     inkscape:window-y="34"
     inkscape:window-maximized="0"
     inkscape:current-layer="svg2" />
  <defs
     id="defs8">
    <style
       type="text/css"
       id="current-color-scheme">
   .ColorScheme-Text { color:#5c616c; } .ColorScheme-Highlight { color:#5294e2; } .ColorScheme-ButtonBackground { color:#d3dae3; }
  </style>
  </defs>
  <path
     style="color:#d3dae3;fill:#ffffff;fill-opacity:1;stroke-width:1.15729785"
     d="M 6.7978306,2.8259371 1.0113415,6.2978306 5.6405328,9.75167 1,13.232359 6.7978306,16.713511 11.427022,13.241617 5.6405328,9.769724 11.427022,6.2978306 l 5.786489,3.4899474 -5.786489,3.453839 2.056865,1.543836 c 1.05806,-1.678776 2.902503,-2.69824 4.886922,-2.701133 1.243516,0.0035 2.453008,0.40635 3.449326,1.150516 l 0.03391,-0.02037 L 17.213279,9.777293 21.842471,6.3053993 16.055982,2.8335059 11.42679,6.2873455 6.7975991,2.8335059 Z M 18.370809,13.241617 c -2.556587,0 -4.629192,2.072605 -4.629192,4.629192 0,2.556586 2.072605,4.629191 4.629192,4.629191 C 20.927395,22.5 23,20.427395 23,17.870809 23,15.314222 20.927395,13.241617 18.370809,13.241617 Z m -6.943787,1.157298 -4.6291914,3.471894 -1.1572978,-0.693928 v 0.693928 l 5.7864892,3.471893 1.708866,-1.023942 c -0.361077,-0.763817 -0.549717,-1.608644 -0.552031,-2.453472 -2.8e-4,-0.776604 0.155772,-1.545339 0.458845,-2.260318 l -1.615588,-1.215163 z m 5.038296,0.74817 1.905491,1.905491 1.905491,-1.905491 0.818255,0.818256 -1.90549,1.905491 1.90549,1.905491 -0.818255,0.818256 -1.901441,-1.921115 -1.905491,1.905491 -0.818244,-0.818256 1.905491,-1.905491 -1.905491,-1.90549 0.818244,-0.818256 z"
     id="path4"
     class="ColorScheme-ButtonBackground"
     inkscape:connector-curvature="0" />
</svg>
